public/img/usage/zenit.svg

<svg fill="none" height="64" viewBox="0 0 137 64" width="137" xmlns="http://www.w3.org/2000/svg" xmlns:xlink="http://www.w3.org/1999/xlink"><clipPath id="a"><path d="m0 0h136.657v64h-136.657z"/></clipPath><g clip-path="url(#a)" fill="#00aeef" opacity=".7"><path d="m29.616 52.7448c35.6798-15.2161 71.362-30.4315 107.044-45.64689-14.807-.01776-29.615-.0328-44.4229-.04851-2.1653 2.86912-4.4489 6.1216-6.4905 8.6053.85-2.8677 1.6993-5.73687 2.5466-8.6053-1.6816-.0164-3.3625-.03143-5.0475-.0492-1.37 3.9029-4.0607 8.7912-6.3443 12.3559-.9552 1.439-1.0919-.0786-.77-1.2019 1.1205-3.7171 2.2418-7.4362 3.3658-11.15332-1.6508.03212-3.3016.06492-4.9524.09771-.5111 1.77791-1.025 3.55721-1.5374 5.33651l-6.9689 9.0836c1.4254-4.8234 2.8514-9.6474 4.2795-14.46999h-5.1452c-.8322 2.88416-1.6665 5.76759-2.4994 8.65309-1.4582.3519-2.9184.7045-4.3758 1.0585.9621-3.2374 1.9228-6.4755 2.8855-9.71159-1.8592-.01639-3.7171-.03143-5.5783-.04919-1.0885 3.66988-2.179 7.33988-3.2675 11.00978-3.3987 4.0061-6.7946 8.0143-10.1933 12.019-.3512.4175-1.0461.8234-1.5189.7578-1.5497-.2706-1.4124-3.9945-1.2607-6.55 2.8855-1.1937 5.9781-3.1588 8.4536-5.6508 4.6635-4.3737 5.6016-11.53864-.576-11.53659-5.8223.05535-11.8734 6.35119-14.0415 16.30249-1.5026.6211-2.9539 1.1152-4.8397 1.9501-.3724-1.8216-1.1814-3.8462-2.9949-5.5626 6.4263-3.5237 13.7662-12.00055 9.6152-17.64176-3.111-3.9002-12.9448-2.456414-19.0391 5.14378-.5281 1.89065-1.0584 3.78268-1.5865 5.67328.3457.0069.6887.0158 1.0345.024 6.2971-8.71809 11.7299-7.29207 11.8256-3.79843.0977 3.02903-4.0048 8.72143-9.3891 12.51913 1.8579 1.8763 3.0427 4.2139 3.4595 7.2436-11.3842 5.7129-21.021955 18.202-21.2781875 27.1599.0799445 3.7991 1.3125975 8.0771 5.4328075 7.9336 9.67808-.4824 24.45418-20.3373 23.41278-35.3361 1.3604-.6409 2.4722-1.1657 3.8346-1.8066-.4359 3.2736.2187 11.2359 6.1182 9.305 4.4871-1.5217 8.8294-8.4284 12.3053-13.2216-1.0256 3.3337-2.0492 6.6675-3.0748 10.0012 2.0341-.6409 4.0696-1.2825 6.1038-1.9227 1.0106-3.5107 2.0205-7.0194 3.029-10.5301 1.523-.4155 3.0447-.833 4.5684-1.2505-1.0256 3.4137-2.0519 6.8274-3.0775 10.2411 1.8592-.6095 3.7185-1.2183 5.5784-1.8278 2.3225-3.0761 4.6449-6.153 6.9715-9.2291-.9395 4.9914.4551 6.7256 3.0038 6.5021 2.8602-.289 5.1916-6.1181 7.0897-9.3384-.494 2.248-1.3167 4.9114-1.2019 6.6818 1.4438-.481 2.8849-.9614 4.3266-1.4424 2.5179-3.221 5.0331-6.4434 7.5496-9.6637h2.5466c-.7195 2.3245-1.4396 4.647-2.1612 6.9709 1.7608-.561 3.5237-1.122 5.288-1.6823.5124-1.7622 1.0269-3.5264 1.538-5.2886l16.6345.0471c-28.0556 11.4588-56.1045 22.9188-84.1466 34.3769-.6894 2.3894-1.3775 4.7741-2.0662 7.1628m15.4416-42.0747c.8978.4326.768 1.9474.494 2.9457-.4701 2.2186-2.6559 5.361-5.6392 7.0289.727-3.4963 3.3734-10.6415 5.1452-9.9746zm-31.8261 44.7013c-4.61563 4.4537-6.03618 1.9057-5.94052-.947.13392-8.6552 7.57632-17.0644 14.19112-21.801-.2856 8.1428-4.0833 18.5492-8.2506 22.748z"/><path d="m90.3851 38.2935-1.5169 2.9326 2.576.0137v9.2414l3.1021.0485.0341-12.2362"/><path d="m100.361 38.2368c-2.9242.0335-4.5982 1.7485-4.6618 4.1353.0034 2.7727 2.0943 4.375 4.9508 3.894-.9782 1.411-1.9539 2.8193-2.9324 4.2296h3.3164c2.351-3.4472 3.98-5.3249 3.944-8.0273.068-2.3949-1.558-4.1899-4.619-4.2316m-.069 6.0348c-1.0479-.0266-1.8761-.8978-1.8515-1.9487.0287-1.0482.8992-1.8763 1.9485-1.8511 1.048.0281 1.877.8993 1.85 1.9481-.027 1.0502-.902 1.879-1.947 1.8517"/><path d="m105.691 42.6457c.035-2.3553 1.336-4.3471 4.398-4.3498 3.062-.0041 4.688 1.385 4.688 3.7007 0 2.3717-1.827 3.8544-4.038 6.0348 1.267-.011 2.579.0013 3.846-.0069.014.833-.014 1.6488 0 2.4804h-9.28c4.528-5.4349 6.579-7.5872 6.587-8.4605.004-.781-.796-1.5135-1.539-1.5135-.764 0-1.695.6218-1.678 2.1128"/><path d="m117.102 38.2981c-.224 2.2754-.447 4.287-.673 6.5623l.348-.002c1.632-.9812 4.676-.1585 4.671 1.5107-.017 1.385-2.755 2.5487-5.259.4141-.103.8575-.207 1.7144-.312 2.5726.773.9326 2.352 1.1568 3.677 1.1663 2.859-.0649 4.867-2.1346 4.831-4.3655.043-2.0929-1.985-4.5254-5.215-3.5435.017-.7134.03-1.1636.047-1.8763 1.475-.0171 3.004.0014 4.477-.0137 0-.8015-.054-1.6282-.054-2.4277-2.186.0048-4.366-.002-6.539.0027"/></g></svg>

<svg width="137" height="64" viewBox="0 0 137 64" fill="none" xmlns="http://www.w3.org/2000/svg">
<g style="mix-blend-mode:luminosity" opacity="0.7" clip-path="url(#clip0_242_4828)">
<path d="M29.616 52.7448C65.2958 37.5287 100.978 22.3133 136.66 7.09791C121.853 7.08015 107.045 7.06511 92.2371 7.0494C90.0718 9.91852 87.7882 13.171 85.7466 15.6547C86.5966 12.787 87.4459 9.91783 88.2932 7.0494C86.6116 7.033 84.9307 7.01797 83.2457 7.0002C81.8757 10.9031 79.185 15.7914 76.9014 19.3561C75.9462 20.7951 75.8095 19.2775 76.1314 18.1542C77.2519 14.4371 78.3732 10.718 79.4972 7.00088C77.8464 7.033 76.1956 7.0658 74.5448 7.09859C74.0337 8.8765 73.5198 10.6558 73.0074 12.4351L66.0385 21.5187C67.4639 16.6953 68.8899 11.8713 70.318 7.04871H65.1728C64.3406 9.93287 63.5063 12.8163 62.6734 15.7018C61.2152 16.0537 59.755 16.4063 58.2976 16.7603C59.2597 13.5229 60.2204 10.2848 61.1831 7.04871C59.3239 7.03232 57.466 7.01728 55.6048 6.99952C54.5163 10.6694 53.4258 14.3394 52.3373 18.0093C48.9386 22.0154 45.5427 26.0236 42.144 30.0283C41.7928 30.4458 41.0979 30.8517 40.6251 30.7861C39.0754 30.5155 39.2127 26.7916 39.3644 24.2361C42.2499 23.0424 45.3425 21.0773 47.818 18.5853C52.4815 14.2116 53.4196 7.04666 47.242 7.04871C41.4197 7.10406 35.3686 13.3999 33.2005 23.3512C31.6979 23.9723 30.2466 24.4664 28.3608 25.3013C27.9884 23.4797 27.1794 21.4551 25.3659 19.7387C31.7922 16.215 39.1321 7.73815 34.9811 2.09694C31.8701 -1.80326 22.0363 -0.359474 15.942 7.24072C15.4139 9.13137 14.8836 11.0234 14.3555 12.914C14.7012 12.9209 15.0442 12.9298 15.39 12.938C21.6871 4.21991 27.1199 5.64593 27.2156 9.13957C27.3133 12.1686 23.2108 17.861 17.8265 21.6587C19.6844 23.535 20.8692 25.8726 21.286 28.9023C9.9018 34.6152 0.264045 47.1043 0.0078125 56.0622C0.087757 59.8613 1.32041 64.1393 5.44062 63.9958C15.1187 63.5134 29.8948 43.6585 28.8534 28.6597C30.2138 28.0188 31.3256 27.494 32.688 26.8531C32.2521 30.1267 32.9067 38.089 38.8062 36.1581C43.2933 34.6364 47.6356 27.7297 51.1115 22.9365C50.0859 26.2702 49.0623 29.604 48.0367 32.9377C50.0708 32.2968 52.1063 31.6552 54.1405 31.015C55.1511 27.5043 56.161 23.9956 57.1695 20.4849C58.6925 20.0694 60.2142 19.6519 61.7379 19.2344C60.7123 22.6481 59.686 26.0618 58.6604 29.4755C60.5196 28.866 62.3789 28.2572 64.2388 27.6477C66.5613 24.5716 68.8837 21.4947 71.2103 18.4186C70.2708 23.41 71.6654 25.1442 74.2141 24.9207C77.0743 24.6317 79.4057 18.8026 81.3038 15.5823C80.8098 17.8303 79.9871 20.4937 80.1019 22.2641C81.5457 21.7831 82.9868 21.3027 84.4285 20.8217C86.9464 17.6007 89.4616 14.3783 91.9781 11.158H94.5247C93.8052 13.4825 93.0851 15.805 92.3635 18.1289C94.1243 17.5679 95.8872 17.0069 97.6515 16.4466C98.1639 14.6844 98.6784 12.9202 99.1895 11.158L115.824 11.2051C87.7684 22.6639 59.7195 34.1239 31.6774 45.582C30.988 47.9714 30.2999 50.3561 29.6112 52.7448M45.0528 10.6701C45.9506 11.1027 45.8208 12.6175 45.5468 13.6158C45.0767 15.8344 42.8909 18.9768 39.9076 20.6447C40.6346 17.1484 43.281 10.0032 45.0528 10.6701ZM13.2267 55.3714C8.61107 59.8251 7.19052 57.2771 7.28618 54.4244C7.4201 45.7692 14.8625 37.36 21.4773 32.6234C21.1917 40.7662 17.394 51.1726 13.2267 55.3714Z" fill="#00AEEF"/>
<path d="M90.3851 38.2935L88.8682 41.2261L91.4442 41.2398V50.4812L94.5463 50.5297L94.5804 38.2935" fill="#00AEEF"/>
<path d="M100.361 38.2368C97.4368 38.2703 95.7628 39.9853 95.6992 42.3721C95.7026 45.1448 97.7935 46.7471 100.65 46.2661C99.6718 47.6771 98.6961 49.0854 97.7176 50.4957H101.034C103.385 47.0485 105.014 45.1708 104.978 42.4684C105.046 40.0735 103.42 38.2785 100.359 38.2368M100.29 44.2716C99.2421 44.245 98.4139 43.3738 98.4385 42.3229C98.4672 41.2747 99.3377 40.4466 100.387 40.4718C101.435 40.4999 102.264 41.3711 102.237 42.4199C102.21 43.4701 101.335 44.2989 100.29 44.2716" fill="#00AEEF"/>
<path d="M105.691 42.6457C105.726 40.2904 107.027 38.2986 110.089 38.2959C113.151 38.2918 114.777 39.6809 114.777 41.9966C114.777 44.3683 112.95 45.851 110.739 48.0314C112.006 48.0204 113.318 48.0327 114.585 48.0245C114.599 48.8575 114.571 49.6733 114.585 50.5049H105.305C109.833 45.07 111.884 42.9177 111.892 42.0444C111.896 41.2634 111.096 40.5309 110.353 40.5309C109.589 40.5309 108.658 41.1527 108.675 42.6437" fill="#00AEEF"/>
<path d="M117.102 38.2981C116.878 40.5735 116.655 42.5851 116.429 44.8604L116.777 44.8584C118.409 43.8772 121.453 44.6999 121.448 46.3691C121.431 47.7541 118.693 48.9178 116.189 46.7832C116.086 47.6407 115.982 48.4976 115.877 49.3558C116.65 50.2884 118.229 50.5126 119.554 50.5221C122.413 50.4572 124.421 48.3875 124.385 46.1566C124.428 44.0637 122.4 41.6312 119.17 42.6131C119.187 41.8997 119.2 41.4495 119.217 40.7368C120.692 40.7197 122.221 40.7382 123.694 40.7231C123.694 39.9216 123.64 39.0949 123.64 38.2954C121.454 38.3002 119.274 38.2934 117.101 38.2981" fill="#00AEEF"/>
</g>
<defs>
<clipPath id="clip0_242_4828">
<rect width="136.657" height="64" fill="white"/>
</clipPath>
</defs>
</svg>
